src/ui/notification-active.svg

<?xml version="1.0" encoding="UTF-8"?><svg xmlns="http://www.w3.org/2000/svg" viewBox="0 0 32 32"><defs><style>.uuid-731eb945-55a8-4682-97d9-b16598836e26{fill:none;}.uuid-731eb945-55a8-4682-97d9-b16598836e26,.uuid-53b1f928-534e-41ab-bf12-2816719e6827{stroke-width:0px;}.uuid-53b1f928-534e-41ab-bf12-2816719e6827{fill:#151515;}</style></defs><g id="uuid-7a95f2a0-507a-4c97-bd8a-a84d2f66143d"><rect class="uuid-731eb945-55a8-4682-97d9-b16598836e26" x="0" width="32" height="32"/></g><g id="uuid-2e428b7f-deca-479b-98a9-ea0d0aed31af"><path class="uuid-53b1f928-534e-41ab-bf12-2816719e6827" d="M29,22c-.5327,0-1.0347-.2085-1.4131-.5869s-.5869-.8804-.5869-1.4131v-3.0898c0-.5522-.4478-1-1-1s-1,.4478-1,1v3.0898c0,1.0669.4165,2.0708,1.1729,2.8271.5137.5142,1.1421.8711,1.8271,1.0469v2.126H4v-2.1265c1.7231-.4453,3-2.0132,3-3.8735v-3.6602c0-4.917,3.688-9.0117,8.3945-9.3218,1.6055-.1055,3.2134.2188,4.6357.9351.4951.249,1.0942.0493,1.3428-.4434.2485-.4937.0498-1.0947-.4434-1.3428-.6412-.3228-1.3188-.5571-2.0089-.7473.364-.552.5792-1.2106.5792-1.9197,0-1.9297-1.5703-3.5-3.5-3.5s-3.5,1.5703-3.5,3.5c0,.7032.2128,1.356.5713,1.9051-4.6666,1.3234-8.0713,5.7512-8.0713,10.9348v3.6602c0,1.103-.897,2-2,2-.5522,0-1,.4478-1,1v3.5c0,.8271.6729,1.5,1.5,1.5h8.0505c.2524,2.2438,2.1392,4,4.4495,4s4.197-1.7562,4.4495-4h8.0505c.8271,0,1.5-.6729,1.5-1.5v-3.5c0-.5522-.4478-1-1-1ZM16,2c.8271,0,1.5.6729,1.5,1.5s-.6729,1.5-1.5,1.5-1.5-.6729-1.5-1.5.6729-1.5,1.5-1.5ZM16,30c-1.2072,0-2.2171-.8603-2.4494-2h4.8988c-.2323,1.1397-1.2422,2-2.4494,2Z"/></g></svg>

<svg xmlns="http://www.w3.org/2000/svg" viewBox="0 0 32 32">
  <path d="M0 0h32v32H0z" fill="none"/>
  <path d="M29 22c-.533 0-1.035-.208-1.413-.587S27 20.533 27 20v-3.09a1 1 0 0 0-2 0V20a3.97 3.97 0 0 0 1.173 2.827A3.973 3.973 0 0 0 28 23.874V26H4v-2.126A4.008 4.008 0 0 0 7 20v-3.66c0-4.917 3.688-9.012 8.395-9.322a9.013 9.013 0 0 1 4.635.935 1 1 0 1 0 .9-1.786 10.862 10.862 0 0 0-2.01-.747 3.47 3.47 0 0 0 .58-1.92C19.5 1.57 17.93 0 16 0s-3.5 1.57-3.5 3.5c0 .703.213 1.356.571 1.905C8.405 6.728 5 11.156 5 16.34V20c0 1.103-.897 2-2 2a1 1 0 0 0-1 1v3.5c0 .827.673 1.5 1.5 1.5h8.05c.253 2.244 2.14 4 4.45 4s4.197-1.756 4.45-4h8.05c.827 0 1.5-.673 1.5-1.5V23a1 1 0 0 0-1-1ZM16 2c.827 0 1.5.673 1.5 1.5S16.827 5 16 5s-1.5-.673-1.5-1.5S15.173 2 16 2Zm0 28a2.504 2.504 0 0 1-2.45-2h4.9A2.504 2.504 0 0 1 16 30Z" fill="#151515"/>
</svg>
